X:1
T: The Marquis of Huntly
C:Peter Milne
R:Strathspey
Q: 232
K:A
M:4/4
L:1/16
|:C2|A,4 C2E2 A2E2 A2B2|c2A2 d2c2 B2A2 G2F2|E2A,2 C2E2 A2E2 c2A2|d2B2 e2c2 f2e2 ^d2e2|
c2e2 a2g2 f2e2 d2c2|d2f2 c2e2 B2G2 F2E2|C2E2 A2E2 D2F2 B2A2|G2E2 F2G2 A6 E2|
AAA2 c2e2 a2A2 g2A2|a2e2 f2a2 e2c2 B2A2|EEE2 G2B2 d2E2 B2E2|d2E2 G2B2 A2G2 F2E2|
A4 c2e2 a2A2 g2A2|a2e2 f2a2 e2c2 B2A2|c2e2 a2e2 d2f2 b2a2|g2e2 f2g2 a6:|
